www/source/img/svg/calculator-btm.svg

<svg width="30" height="30" viewBox="0 0 30 30" fill="none" xmlns="http://www.w3.org/2000/svg">
<path d="M8.75 10.75C8.75 10.087 9.01339 9.45107 9.48223 8.98223C9.95107 8.51339 10.587 8.25 11.25 8.25H18.75C19.413 8.25 20.0489 8.51339 20.5178 8.98223C20.9866 9.45107 21.25 10.087 21.25 10.75V12C21.25 12.663 20.9866 13.2989 20.5178 13.7678C20.0489 14.2366 19.413 14.5 18.75 14.5H11.25C10.587 14.5 9.95107 14.2366 9.48223 13.7678C9.01339 13.2989 8.75 12.663 8.75 12V10.75ZM11.25 10.125C11.0842 10.125 10.9253 10.1908 10.8081 10.3081C10.6908 10.4253 10.625 10.5842 10.625 10.75V12C10.625 12.1658 10.6908 12.3247 10.8081 12.4419C10.9253 12.5592 11.0842 12.625 11.25 12.625H18.75C18.9158 12.625 19.0747 12.5592 19.1919 12.4419C19.3092 12.3247 19.375 12.1658 19.375 12V10.75C19.375 10.5842 19.3092 10.4253 19.1919 10.3081C19.0747 10.1908 18.9158 10.125 18.75 10.125H11.25ZM10.3125 20.125C10.7269 20.125 11.1243 19.9604 11.4174 19.6674C11.7104 19.3743 11.875 18.9769 11.875 18.5625C11.875 18.1481 11.7104 17.7507 11.4174 17.4576C11.1243 17.1646 10.7269 17 10.3125 17C9.8981 17 9.50067 17.1646 9.20765 17.4576C8.91462 17.7507 8.75 18.1481 8.75 18.5625C8.75 18.9769 8.91462 19.3743 9.20765 19.6674C9.50067 19.9604 9.8981 20.125 10.3125 20.125ZM11.875 23.5625C11.875 23.9769 11.7104 24.3743 11.4174 24.6674C11.1243 24.9604 10.7269 25.125 10.3125 25.125C9.8981 25.125 9.50067 24.9604 9.20765 24.6674C8.91462 24.3743 8.75 23.9769 8.75 23.5625C8.75 23.1481 8.91462 22.7507 9.20765 22.4576C9.50067 22.1646 9.8981 22 10.3125 22C10.7269 22 11.1243 22.1646 11.4174 22.4576C11.7104 22.7507 11.875 23.1481 11.875 23.5625ZM19.6875 20.125C20.1019 20.125 20.4993 19.9604 20.7924 19.6674C21.0854 19.3743 21.25 18.9769 21.25 18.5625C21.25 18.1481 21.0854 17.7507 20.7924 17.4576C20.4993 17.1646 20.1019 17 19.6875 17C19.2731 17 18.8757 17.1646 18.5826 17.4576C18.2896 17.7507 18.125 18.1481 18.125 18.5625C18.125 18.9769 18.2896 19.3743 18.5826 19.6674C18.8757 19.9604 19.2731 20.125 19.6875 20.125ZM21.25 23.5625C21.25 23.9769 21.0854 24.3743 20.7924 24.6674C20.4993 24.9604 20.1019 25.125 19.6875 25.125C19.2731 25.125 18.8757 24.9604 18.5826 24.6674C18.2896 24.3743 18.125 23.9769 18.125 23.5625C18.125 23.1481 18.2896 22.7507 18.5826 22.4576C18.8757 22.1646 19.2731 22 19.6875 22C20.1019 22 20.4993 22.1646 20.7924 22.4576C21.0854 22.7507 21.25 23.1481 21.25 23.5625ZM15 20.125C15.4144 20.125 15.8118 19.9604 16.1049 19.6674C16.3979 19.3743 16.5625 18.9769 16.5625 18.5625C16.5625 18.1481 16.3979 17.7507 16.1049 17.4576C15.8118 17.1646 15.4144 17 15 17C14.5856 17 14.1882 17.1646 13.8951 17.4576C13.6021 17.7507 13.4375 18.1481 13.4375 18.5625C13.4375 18.9769 13.6021 19.3743 13.8951 19.6674C14.1882 19.9604 14.5856 20.125 15 20.125ZM16.5625 23.5625C16.5625 23.9769 16.3979 24.3743 16.1049 24.6674C15.8118 24.9604 15.4144 25.125 15 25.125C14.5856 25.125 14.1882 24.9604 13.8951 24.6674C13.6021 24.3743 13.4375 23.9769 13.4375 23.5625C13.4375 23.1481 13.6021 22.7507 13.8951 22.4576C14.1882 22.1646 14.5856 22 15 22C15.4144 22 15.8118 22.1646 16.1049 22.4576C16.3979 22.7507 16.5625 23.1481 16.5625 23.5625ZM9.0625 4.5C7.98506 4.5 6.95174 4.92801 6.18988 5.68988C5.42801 6.45175 5 7.48506 5 8.5625V25.4375C5 25.971 5.10508 26.4993 5.30924 26.9922C5.5134 27.485 5.81264 27.9329 6.18988 28.3101C6.56712 28.6874 7.01496 28.9866 7.50785 29.1908C8.00073 29.3949 8.529 29.5 9.0625 29.5H20.9375C21.471 29.5 21.9993 29.3949 22.4921 29.1908C22.985 28.9866 23.4329 28.6874 23.8101 28.3101C24.1874 27.9329 24.4866 27.485 24.6908 26.9922C24.8949 26.4993 25 25.971 25 25.4375V8.5625C25 7.48506 24.572 6.45175 23.8101 5.68988C23.0483 4.92801 22.0149 4.5 20.9375 4.5H9.0625ZM6.875 8.5625C6.875 7.355 7.855 6.375 9.0625 6.375H20.9375C22.145 6.375 23.125 7.355 23.125 8.5625V25.4375C23.125 26.0177 22.8945 26.5741 22.4843 26.9843C22.0741 27.3945 21.5177 27.625 20.9375 27.625H9.0625C8.48234 27.625 7.92594 27.3945 7.5157 26.9843C7.10547 26.5741 6.875 26.0177 6.875 25.4375V8.5625Z" fill="white"/>
</svg>

<svg width="30" height="30" fill="none" xmlns="http://www.w3.org/2000/svg"><path d="M8.75 10.75a2.5 2.5 0 012.5-2.5h7.5a2.5 2.5 0 012.5 2.5V12a2.5 2.5 0 01-2.5 2.5h-7.5a2.5 2.5 0 01-2.5-2.5v-1.25zm2.5-.625a.624.624 0 00-.625.625V12a.624.624 0 00.625.625h7.5a.624.624 0 00.625-.625v-1.25a.624.624 0 00-.625-.625h-7.5zm-.938 10a1.563 1.563 0 100-3.126 1.563 1.563 0 000 3.126zm1.563 3.438a1.563 1.563 0 11-3.126 0 1.563 1.563 0 013.126 0zm7.813-3.438a1.563 1.563 0 100-3.126 1.563 1.563 0 000 3.126zm1.562 3.438a1.563 1.563 0 11-3.126 0 1.563 1.563 0 013.126 0zM15 20.125a1.563 1.563 0 100-3.126 1.563 1.563 0 000 3.126zm1.563 3.438a1.563 1.563 0 11-3.126 0 1.563 1.563 0 013.126 0zM9.063 4.5A4.062 4.062 0 005 8.563v16.874A4.063 4.063 0 009.063 29.5h11.874A4.063 4.063 0 0025 25.437V8.563A4.062 4.062 0 0020.937 4.5H9.063zM6.874 8.563c0-1.208.98-2.188 2.188-2.188h11.874c1.208 0 2.188.98 2.188 2.188v16.874a2.188 2.188 0 01-2.188 2.188H9.063a2.188 2.188 0 01-2.187-2.188V8.563z" fill="#fff"/></svg>
